; generated on 2019-02-12 17:29:10.470088
G28 X Y ; home X and Y
M302 S0 ; disable minimum extruder temp

G90 ; absolute coordinates for the movements
M82 ; absolute distances for extrusion


G0 X11.801 Y50.445
G1 E10
G1 X11.801 Y50.445
G1 X10.788 Y50.191
G1 X9.793 Y49.872
G1 X8.821 Y49.490
G1 X7.890 Y49.049
G1 X6.990 Y48.547
G1 X6.126 Y47.986
G1 X5.317 Y47.377
G1 X4.551 Y46.715
G1 X3.833 Y46.001
G1 X3.179 Y45.253
G1 X2.581 Y44.458
G1 X2.042 Y43.623
G1 X1.585 Y42.790
G1 X1.185 Y41.928
G1 X0.845 Y41.040
G1 X0.567 Y40.132
G1 X0.357 Y39.223
G1 X0.213 Y38.302
G1 X0.136 Y37.373
G1 X0.127 Y36.440
G1 X0.186 Y35.471
G1 X0.311 Y34.508
G1 X0.501 Y33.557
G1 X0.757 Y32.620
G1 X1.222 Y31.292
G1 X1.780 Y30.000
G1 X2.429 Y28.752
G1 X3.266 Y27.388
G1 X4.198 Y26.088
G1 X5.324 Y24.704
G1 X6.519 Y23.380
G1 X9.778 Y20.197
G1 X14.593 Y15.953
G1 X18.890 Y12.231
G1 X22.452 Y8.817
G1 X23.816 Y7.327
G1 X25.085 Y5.755
G1 X26.028 Y4.405
G1 X26.865 Y2.986
G1 X27.162 Y2.386
G1 X27.415 Y1.766
G1 X27.834 Y0.344
G1 X27.987 Y0.157
G1 X28.187 Y0.140
G1 X28.304 Y0.222
G1 X28.399 Y0.388
G1 X28.752 Y1.679
G1 X28.945 Y2.161
G1 X29.228 Y2.755
G1 X29.997 Y4.136
G1 X30.880 Y5.446
G1 X31.976 Y6.845
G1 X33.153 Y8.175
G1 X36.494 Y11.451
G1 X45.579 Y19.413
G1 X48.357 Y22.015
G1 X50.469 Y24.235
G1 X52.231 Y26.395
G1 X53.213 Y27.818
G1 X54.087 Y29.308
G1 X54.570 Y30.275
G1 X54.995 Y31.270
G1 X55.361 Y32.287
G1 X55.641 Y33.254
G1 X55.860 Y34.236
G1 X56.014 Y35.230
G1 X56.092 Y36.165
G1 X56.095 Y37.102
G1 X56.024 Y38.037
G1 X55.864 Y39.093
G1 X55.631 Y40.134
G1 X55.335 Y41.116
G1 X54.964 Y42.071
G1 X54.519 Y42.993
G1 X54.004 Y43.878
G1 X53.401 Y44.757
G1 X52.739 Y45.591
G1 X51.998 Y46.397
G1 X51.197 Y47.144
G1 X50.342 Y47.827
G1 X49.436 Y48.443
G1 X48.480 Y48.992
G1 X47.485 Y49.469
G1 X46.457 Y49.869
G1 X45.402 Y50.192
G1 X44.329 Y50.434
G1 X43.241 Y50.594
G1 X42.144 Y50.673
G1 X41.044 Y50.669
G1 X39.961 Y50.582
G1 X38.888 Y50.411
G1 X37.832 Y50.156
G1 X36.799 Y49.821
G1 X35.914 Y49.455
G1 X35.060 Y49.023
G1 X34.241 Y48.526
G1 X33.419 Y47.942
G1 X32.636 Y47.306
G1 X31.897 Y46.619
G1 X31.203 Y45.883
G1 X30.559 Y45.104
G1 X29.967 Y44.284
G1 X29.460 Y43.464
G1 X29.016 Y42.608
G1 X28.105 Y40.491
G1 X27.972 Y40.737
G1 X27.379 Y42.230
G1 X26.953 Y43.101
G1 X26.463 Y43.938
G1 X25.889 Y44.780
G1 X25.262 Y45.583
G1 X24.585 Y46.344
G1 X23.869 Y47.053
G1 X23.108 Y47.714
G1 X22.306 Y48.324
G1 X21.520 Y48.836
G1 X20.696 Y49.285
G1 X19.838 Y49.666
G1 X18.574 Y50.118
G1 X17.466 Y50.404
G1 X16.312 Y50.569
G1 X14.905 Y50.649
G1 X13.839 Y50.665
G1 X13.116 Y50.643
G1 X12.497 Y50.575
G1 X11.801 Y50.445
G0 X12.318 Y50.025
G1 X12.318 Y50.025
G1 X11.270 Y49.789
G1 X10.240 Y49.482
G1 X9.234 Y49.106
G1 X8.255 Y48.663
G1 X7.341 Y48.168
G1 X6.467 Y47.606
G1 X5.637 Y46.981
G1 X4.857 Y46.295
G1 X4.139 Y45.561
G1 X3.479 Y44.775
G1 X2.880 Y43.941
G1 X2.346 Y43.064
G1 X1.872 Y42.137
G1 X1.467 Y41.178
G1 X1.133 Y40.191
G1 X0.872 Y39.183
G1 X0.717 Y38.108
G1 X0.671 Y36.700
G1 X0.725 Y35.275
G1 X0.786 Y34.704
G1 X0.884 Y34.137
G1 X1.140 Y33.094
G1 X1.468 Y32.071
G1 X1.884 Y31.016
G1 X2.362 Y29.986
G1 X2.925 Y28.937
G1 X3.546 Y27.922
G1 X4.248 Y26.902
G1 X5.001 Y25.918
G1 X6.733 Y23.904
G1 X8.616 Y21.975
G1 X11.124 Y19.662
G1 X19.451 Y12.392
G1 X22.416 Y9.592
G1 X24.540 Y7.294
G1 X25.413 Y6.210
G1 X26.222 Y5.078
G1 X26.726 Y4.276
G1 X27.787 Y2.319
G1 X27.872 Y1.978
G1 X28.011 Y1.892
G1 X28.222 Y1.898
G1 X28.344 Y1.984
G1 X28.425 Y2.319
G1 X29.486 Y4.276
G1 X29.990 Y5.078
G1 X30.798 Y6.208
G1 X31.668 Y7.290
G1 X33.788 Y9.584
G1 X36.743 Y12.376
G1 X45.318 Y19.878
G1 X48.051 Y22.431
G1 X50.072 Y24.563
G1 X51.831 Y26.729
G1 X52.433 Y27.578
G1 X53.510 Y29.355
G1 X54.390 Y31.191
G1 X54.754 Y32.122
G1 X55.042 Y33.006
G1 X55.275 Y33.906
G1 X55.466 Y35.120
G1 X55.541 Y36.594
G1 X55.503 Y38.047
G1 X55.444 Y38.618
G1 X55.118 Y40.060
G1 X54.841 Y40.921
G1 X54.511 Y41.763
G1 X54.134 Y42.568
G1 X53.706 Y43.347
G1 X53.228 Y44.096
G1 X52.701 Y44.812
G1 X52.129 Y45.493
G1 X51.514 Y46.135
G1 X50.847 Y46.748
G1 X50.143 Y47.318
G1 X49.406 Y47.843
G1 X48.456 Y48.408
G1 X47.327 Y48.952
G1 X46.125 Y49.430
G1 X44.950 Y49.796
G1 X44.205 Y49.974
G1 X43.596 Y50.068
G1 X42.874 Y50.111
G1 X40.482 Y50.111
G1 X39.760 Y50.067
G1 X39.145 Y49.972
G1 X38.381 Y49.790
G1 X37.430 Y49.498
G1 X36.503 Y49.137
G1 X35.605 Y48.708
G1 X34.733 Y48.210
G1 X33.900 Y47.652
G1 X33.108 Y47.034
G1 X32.362 Y46.361
G1 X31.667 Y45.636
G1 X31.025 Y44.863
G1 X30.445 Y44.051
G1 X29.926 Y43.198
G1 X29.471 Y42.310
G1 X29.086 Y41.424
G1 X28.765 Y40.552
G1 X28.521 Y39.734
G1 X28.240 Y38.328
G1 X28.174 Y38.247
G1 X28.071 Y38.233
G1 X27.972 Y38.328
G1 X27.720 Y39.637
G1 X27.307 Y40.958
G1 X26.709 Y42.365
G1 X25.992 Y43.698
G1 X25.593 Y44.314
G1 X24.863 Y45.260
G1 X23.920 Y46.274
G1 X22.920 Y47.204
G1 X22.481 Y47.560
G1 X21.543 Y48.190
G1 X19.966 Y49.006
G1 X18.843 Y49.459
G1 X17.769 Y49.793
G1 X16.526 Y50.029
G1 X15.008 Y50.153
G1 X13.506 Y50.158
G1 X12.910 Y50.114
G1 X12.318 Y50.025
G0 X17.777 Y49.667
G1 X17.777 Y49.667
G1 X18.518 Y49.448
G1 X19.244 Y49.181
G1 X19.950 Y48.867
G1 X21.029 Y48.287
G1 X22.056 Y47.618
G1 X23.033 Y46.860
G1 X23.944 Y46.023
G1 X24.489 Y45.444
G1 X25.468 Y44.192
G1 X25.891 Y43.537
G1 X26.640 Y42.149
G1 X26.965 Y41.419
G1 X27.484 Y39.964
G1 X27.853 Y38.328
G1 X27.927 Y38.196
G1 X28.043 Y38.130
G1 X28.214 Y38.149
G1 X28.342 Y38.291
G1 X28.600 Y39.590
G1 X28.931 Y40.679
G1 X29.255 Y41.499
G1 X29.627 Y42.295
G1 X30.111 Y43.181
G1 X30.653 Y44.032
G1 X31.250 Y44.846
G1 X31.892 Y45.608
G1 X32.584 Y46.323
G1 X33.324 Y46.990
G1 X34.093 Y47.591
G1 X34.902 Y48.136
G1 X35.748 Y48.624
G1 X36.607 Y49.039
G1 X37.495 Y49.389
G1 X38.407 Y49.671
G1 X39.459 Y49.904
G1 X40.487 Y49.986
G1 X42.880 Y49.986
G1 X43.602 Y49.943
G1 X44.217 Y49.847
G1 X44.981 Y49.665
G1 X46.110 Y49.312
G1 X47.204 Y48.863
G1 X48.283 Y48.313
G1 X49.316 Y47.679
G1 X50.291 Y46.969
G1 X51.207 Y46.183
G1 X52.282 Y45.059
G1 X52.768 Y44.451
G1 X53.419 Y43.507
G1 X53.989 Y42.511
G1 X54.473 Y41.472
G1 X54.868 Y40.395
G1 X55.108 Y39.538
G1 X55.284 Y38.667
G1 X55.395 Y37.784
G1 X55.441 Y36.896
G1 X55.421 Y36.007
G1 X55.301 Y34.836
G1 X55.082 Y33.679
G1 X54.765 Y32.544
G1 X54.353 Y31.442
G1 X53.601 Y29.850
G1 X52.724 Y28.323
G1 X51.726 Y26.873
G1 X49.944 Y24.684
G1 X47.920 Y22.549
G1 X45.195 Y20.002
G1 X36.437 Y12.346
G1 X35.516 Y11.510
G1 X33.128 Y9.163
G1 X31.165 Y6.937
G1 X30.379 Y5.917
G1 X29.643 Y4.860
G1 X29.084 Y3.936
G1 X28.116 Y2.007
G1 X28.073 Y2.024
G1 X27.935 Y2.289
G1 X27.128 Y3.936
G1 X26.569 Y4.860
G1 X25.833 Y5.917
G1 X25.047 Y6.937
G1 X23.084 Y9.163
G1 X20.696 Y11.510
G1 X19.773 Y12.348
G1 X11.916 Y19.202
G1 X9.631 Y21.247
G1 X7.923 Y22.909
G1 X6.292 Y24.647
G1 X4.976 Y26.224
G1 X3.775 Y27.891
G1 X2.836 Y29.428
G1 X2.026 Y31.036
G1 X1.613 Y32.044
G1 X1.274 Y33.080
G1 X1.012 Y34.137
G1 X0.857 Y35.215
G1 X0.793 Y36.588
G1 X0.817 Y37.939
G1 X0.943 Y38.932
G1 X1.189 Y39.936
G1 X1.511 Y40.919
G1 X1.907 Y41.874
G1 X2.373 Y42.796
G1 X2.912 Y43.687
G1 X3.515 Y44.536
G1 X4.180 Y45.337
G1 X4.902 Y46.087
G1 X5.685 Y46.789
G1 X6.518 Y47.432
G1 X7.396 Y48.011
G1 X8.314 Y48.525
G1 X9.276 Y48.975
G1 X10.267 Y49.356
G1 X11.283 Y49.665
G1 X12.318 Y49.901
G1 X13.507 Y50.034
G1 X15.009 Y50.028
G1 X16.528 Y49.904
G1 X17.157 Y49.806
G1 X17.777 Y49.667
G0 X18.018 Y50.149
G1 X18.018 Y50.149
G1 X19.525 Y49.630
G1 X20.251 Y49.301
G1 X21.348 Y48.705
G1 X22.392 Y48.020
G1 X23.382 Y47.247
G1 X24.306 Y46.395
G1 X25.382 Y45.180
G1 X25.864 Y44.526
G1 X26.464 Y43.582
G1 X27.088 Y42.451
G1 X27.614 Y41.382
G1 X27.918 Y40.475
G1 X27.994 Y40.392
G1 X28.116 Y40.354
G1 X28.237 Y40.394
G1 X28.312 Y40.494
G1 X28.587 Y41.334
G1 X29.024 Y42.266
G1 X29.573 Y43.285
G1 X30.160 Y44.232
G1 X30.818 Y45.144
G1 X31.543 Y46.005
G1 X32.330 Y46.809
G1 X33.176 Y47.551
G1 X34.055 Y48.208
G1 X34.985 Y48.792
G1 X35.959 Y49.298
G1 X36.971 Y49.723
G1 X38.008 Y50.063
G1 X39.070 Y50.317
G1 X40.148 Y50.484
G1 X41.237 Y50.561
G1 X42.346 Y50.552
G1 X43.451 Y50.456
G1 X44.545 Y50.274
G1 X45.622 Y50.007
G1 X46.711 Y49.642
G1 X47.766 Y49.187
G1 X48.779 Y48.646
G1 X49.777 Y48.006
G1 X50.723 Y47.291
G1 X51.612 Y46.507
G1 X52.432 Y45.663
G1 X53.186 Y44.759
G1 X53.868 Y43.799
G1 X54.307 Y43.078
G1 X54.698 Y42.329
G1 X55.039 Y41.556
G1 X55.328 Y40.762
G1 X55.583 Y39.840
G1 X55.801 Y38.719
G1 X55.953 Y37.601
G1 X56.002 Y36.691
G1 X55.973 Y35.891
G1 X55.885 Y35.095
G1 X55.530 Y33.355
G1 X54.974 Y31.602
G1 X54.636 Y30.773
G1 X54.251 Y29.965
G1 X53.384 Y28.412
G1 X52.405 Y26.927
G1 X51.269 Y25.431
G1 X50.043 Y24.009
G1 X48.399 Y22.296
G1 X46.680 Y20.659
G1 X38.010 Y13.060
G1 X35.502 Y10.778
G1 X33.588 Y8.892
G1 X31.970 Y7.112
G1 X30.735 Y5.530
G1 X30.186 Y4.720
G1 X29.675 Y3.885
G1 X28.870 Y2.324
G1 X28.547 Y1.460
G1 X28.277 Y0.474
G1 X28.213 Y0.383
G1 X28.126 Y0.343
G1 X28.020 Y0.357
G1 X27.949 Y0.432
G1 X27.607 Y1.626
G1 X27.363 Y2.286
G1 X27.065 Y2.924
G1 X26.418 Y4.078
G1 X25.698 Y5.189
G1 X24.782 Y6.430
G1 X23.797 Y7.617
G1 X21.427 Y10.101
G1 X20.130 Y11.331
G1 X17.282 Y13.871
G1 X10.282 Y19.969
G1 X7.254 Y22.861
G1 X5.041 Y25.308
G1 X4.114 Y26.491
G1 X3.255 Y27.724
G1 X2.206 Y29.491
G1 X1.373 Y31.267
G1 X0.764 Y33.027
G1 X0.549 Y33.883
G1 X0.390 Y34.750
G1 X0.262 Y35.800
G1 X0.230 Y37.134
G1 X0.390 Y38.621
G1 X0.591 Y39.661
G1 X0.874 Y40.682
G1 X1.239 Y41.677
G1 X1.682 Y42.640
G1 X2.208 Y43.582
G1 X2.804 Y44.482
G1 X3.467 Y45.334
G1 X4.192 Y46.134
G1 X4.990 Y46.891
G1 X5.842 Y47.587
G1 X6.744 Y48.218
G1 X7.689 Y48.780
G1 X8.686 Y49.279
G1 X9.716 Y49.705
G1 X10.773 Y50.056
G1 X11.853 Y50.332
G1 X12.542 Y50.454
G1 X13.238 Y50.522
G1 X14.933 Y50.546
G1 X16.628 Y50.421
G1 X17.328 Y50.311
G1 X18.018 Y50.149
G1 E0
